X:1
T:Title
%%score { ( 1 4 ) | ( 2 3 ) }
L:1/8
M:4/4
K:G
V:1 treble nm="Grand Piano"
V:4 treble 
V:2 bass 
V:3 bass 
V:1
 z4 z2[Q:1/4=106] D2 | G2 G2 GA B2 | [GB]2 [FA]2 [FA]2 D2 | [FA]3 [FA] [FA][GB] [Ac]2 | %4
[M:3/4] [Ac]2 B2 B2 |[M:1/4] Bc |[M:4/4] d2 d2 B2 [DG]2 | [CE]2 [Ec]2 [Ec]2 BA | G3 D GA[DB][Ec] | %9
[M:7/8] [DB]2 [CA]2 [B,G]3 |[M:1/4] Bc |[M:4/4] d3 d dc[EG][^DA] | [DB]2 [Dc]2 d3 B | c2 B2 A2 G2 | %14
[M:7/8] F2 G2 A3 |[M:1/8] D |[M:4/4] GFGA BAGA | B2 c2 d3 d | [Ge]>[Ge] [DGd]>[EG] [DGB]2 [CDA]2 | %19
[M:3/4] [B,DG]6 |] %20
V:2
 z4 z2 [G,B,]2 | [G,B,D]2 [G,B,D]2 [G,D]-[G,CD] [G,DG]2 | [D,D]2 [D,D]2 [D,D]2 [D,F,]2 | %3
 [D,D]3 [D,D] [D,D]2 [D,D]2 |[M:3/4][K:treble] [G,D]2 [G,DG]2 [G,DG]2 |[M:1/4] D z | %6
[M:4/4] [G,B,G]2 [G,B,G]2[K:bass] [G,D]2 [B,,G,]2 | z4 z2 .G,2 | %8
 [D,B,D]3 [D,B,] [E,G,B,][D,F,D] z C, |[M:7/8] [D,G,]2 [D,F,]2 [G,,G,]3 |[M:1/4][K:treble] [G,G]2 | %11
[M:4/4] [G,B,G]3 [G,B,=F][K:bass] [C,C]2 [C,G,]2 | [G,,G,]2 [G,,A,]2[K:treble] [G,B,G]3 [G,DG] | %13
 [A,DF]2 [G,DG]2[K:bass] [F,D]2 [E,A,^C]2 |[M:7/8] [D,A,D]2 [E,A,^C]2 [D,F,=C]3 |[M:1/8] D, | %16
[M:4/4] G,F,G,A, B,A,G,A, | [G,DG]2 [A,DF]2 [B,DG]3 [G,B,G] | [C,C]>[C,C] B,,>C, D,2 D,2 | %19
[M:3/4] G,,6 |] %20
V:3
 x8 | z4 .B,2 z2 | x8 | x8 |[M:3/4][K:treble] x6 |[M:1/4] [G,G]-[G,A,G] |[M:4/4] x4[K:bass] x4 | %7
 [C,G,]2 [C,G,]2 [C,G,]2 C,-[C,C] | z4 z2 G,2 |[M:7/8] x7 |[M:1/4][K:treble] z A, | %11
[M:4/4] x4[K:bass] x4 | x4[K:treble] x4 | x4[K:bass] x4 |[M:7/8] x7 |[M:1/8] x |[M:4/4] x8 | x8 | %18
 x8 |[M:3/4] x6 |] %20
V:4
 x8 | x8 | x8 | x8 |[M:3/4] x6 |[M:1/4] x2 |[M:4/4] x8 | z4 z2 E2 | x8 |[M:7/8] x7 |[M:1/4] x2 | %11
[M:4/4] z4 E2 z2 | x8 | x8 |[M:7/8] x7 |[M:1/8] x |[M:4/4] x8 | x8 | x8 |[M:3/4] x6 |] %20

